images/leaves1.svg

<svg width="292" height="213" viewBox="0 0 292 213" fill="none" xmlns="http://www.w3.org/2000/svg">
<path fill-rule="evenodd" clip-rule="evenodd" d="M103.264 161.374C102.144 163.234 102.868 166.245 103.165 168.236C102.895 163.351 106.257 157.852 108.067 153.502C109.827 149.269 111.296 144.902 112.342 140.429C112.366 140.332 114.573 130.349 111.328 132.255C102.306 137.503 108.127 154.03 103.264 161.374ZM99.3797 85.7266C102.117 89.3287 115.93 106.278 120.937 100.683C124.921 96.2298 116.726 85.5566 113.294 83.1649C107.577 79.1872 101.446 75.9377 95.9656 71.5771C96.5795 76.6759 96.0829 81.4205 99.3797 85.7266ZM245.035 88.6002C249.448 87.9421 253.874 87.2567 258.227 86.2772C253.174 87.0227 248.178 87.6303 243.221 88.8963L245.035 88.5995L245.035 88.6002ZM11.2235 169.855C10.2987 167.52 15.4483 163.568 16.6601 162.282C19.9823 158.752 23.4003 154.828 23.9903 150.157C25.0749 146.492 16.4947 148.397 13.9023 147.958C12.0847 147.65 7.62731 146.615 6.69657 144.74C4.70323 140.722 11.1039 138.551 13.897 137.238C17.9883 135.315 20.1932 134.822 15.8424 133.004C11.1652 131.051 1.20224 131.292 0.0844223 124.44C-0.866859 118.604 8.91697 116.181 12.8006 115.288C20.118 113.597 26.6397 114.658 33.5097 117.43C35.1117 118.076 44.8165 121.503 44.1684 119.102C42.0999 113.853 35.0752 112.896 32.3379 108.1C30.7826 105.373 30.7096 102.84 28.734 100.154C26.7839 97.5023 22.7728 93.619 24.6164 89.8518C25.7875 87.4613 28.5669 87.0662 30.672 87.7996C35.7928 89.207 39.2345 92.453 43.7497 95.0136C47.0544 96.8859 50.7849 96.1846 53.6771 98.9708C58.044 103.288 62.4287 108.146 67.2555 112.169C68.7684 113.43 75.8435 118.853 76.2927 114.691C76.5459 112.347 69.301 108.329 68.1219 107.464C65.3053 105.395 62.2901 103.675 60.7625 100.339C59.8867 98.4262 60.3282 96.3722 59.6328 94.8845C57.575 90.4875 51.6298 87.1939 48.9895 83.0078C46.6208 79.2512 41.1107 69.7515 42.7068 65.2078C44.8917 58.9862 51.2245 65.5495 54.33 67.8722C57.7674 70.445 60.7545 73.0422 64.5337 74.8323C67.8687 76.4148 70.3006 78.1559 72.658 81.1867C77.0139 86.7857 79.9162 93.0611 83.4163 98.9551C83.3999 98.9377 83.3848 98.9193 83.3709 98.9C85.4685 102.287 88.4527 105.837 92.0542 107.762C98.0922 110.989 96.299 107.178 93.3491 103.019C88.9031 96.7485 83.482 91.1714 79.0176 84.9338C77.4273 82.7116 75.9169 80.2808 75.686 77.468C75.5313 75.5811 76.7329 74.0684 76.7735 72.6983C76.9201 67.9345 62.3297 41.4651 72.2953 39.8479C77.6763 38.9743 80.9841 50.98 82.754 54.1443C85.5807 59.198 86.981 63.6163 92.2464 66.381C91.7548 64.1222 93.6463 62.5315 93.359 60.5628C93.0162 58.222 90.5649 56.1758 89.2289 54.3858C85.556 49.4651 82.1714 44.2271 79.8486 38.5495C72.7627 21.2237 91.2099 34.3216 97.0518 39.0709C98.172 39.9827 99.6153 41.1258 100.902 42.1447C104.281 44.8105 105.383 44.307 108.941 45.697C114.993 48.0635 118.428 58.8861 120.395 64.5919C121.004 66.3524 131.366 94.0828 135.351 86.9586C137.361 83.3664 130.831 71.4575 128.72 67.9816C125.473 62.6374 117.018 55.2922 117.674 48.5596C117.88 46.4446 119.502 45.5554 119.8 43.6586C120.499 39.23 116.326 33.4824 115.233 29.3362C113.011 20.8978 117.589 14.8435 123.648 24.3815C126.045 28.1568 127.821 30.3763 130.92 33.655C134.455 37.3959 134.375 42.543 137.059 46.5183C139.279 49.8034 138.975 46.5501 142.568 48.8486C145.551 50.7583 146.088 57.4608 146.468 60.69C146.994 65.1748 146.645 83.7842 153.023 83.8595C158.837 83.9281 157.097 71.9322 156.391 68.5827C154.625 60.2038 149.185 54.067 144.544 47.2008C142.281 43.8541 139.474 39.8954 138.371 35.9527C137.406 32.4968 138.54 29.881 138.954 26.549C139.438 22.6697 140.328 4.83913 148.598 10.5662C154.154 14.4139 152.181 24.1726 157.124 28.4556C157.656 23.8558 154.791 11.8806 161.23 9.82568C167.446 7.8425 170.607 20.9233 172.163 25.2576C173.116 27.9165 175.251 43.5296 178.514 45.2133C181.92 46.9704 182.996 42.4546 183.862 39.9899C185.345 35.7753 197.002 -2.92282 203.791 1.28666C209.057 4.54915 199.575 16.4792 201.607 19.943C202.354 21.2162 203.69 20.1924 205.016 20.6546C209.878 22.3504 210.763 24.8188 208.539 29.6722C221.495 31.4629 207.489 42.5845 202.977 46.439C199.903 49.0644 186.514 60.0527 192.959 65.1642C195.126 66.8829 201.179 65.1203 203.886 65.8083C209.106 67.1372 209.904 72.0252 205.857 75.4381C203.073 77.7875 198.868 78.9317 195.321 79.3995C193.285 79.6704 187.567 78.8963 186.174 80.5297C193.819 84.7968 187.321 86.8999 181.709 89.0043C177.512 90.5786 166.504 94.1742 166.486 100.185C173.397 99.5488 180.077 97.0489 186.907 95.9301C194.387 94.7084 201.637 93.1209 209.221 91.0957C223.602 87.2537 238.803 83.8675 253.481 81.6825C260.661 80.6133 267.804 79.083 274.906 77.5865C277.467 77.0449 290.571 71.8899 291.623 77.0274C293.045 83.9764 272.902 82.6942 269.198 84.8696C242.656 89.9377 216.399 96.5372 189.8 100.935C192.17 101.507 197.435 105.52 195.543 108.502C197.616 108.76 201.4 108.095 202.994 109.709C206.519 113.283 201.753 112.754 201.071 114.469C199.906 117.399 206.037 118.047 208.298 118.712C218.84 121.809 229.12 127.29 238.909 132.261C244.279 134.991 256.036 147.807 245.553 151.548C240.321 153.417 232.432 149.274 228.004 146.975C225.209 145.526 218.425 139.853 214.973 140.352C214.777 144.436 219.962 152.534 221.429 156.096C224.532 163.626 225.908 169.424 222.049 177.048C212.883 195.163 205.578 162.364 203.01 163.686C201.203 164.618 203.773 179.908 204.002 181.866C204.511 186.204 204.679 198.603 198.041 199.201C192.473 199.702 190.172 188.657 188.913 185.039C187.857 182.005 185.756 178.964 184.951 175.472C184.289 172.598 184.749 169.544 184.161 166.738C183.549 163.82 181.121 162.239 180.388 158.956C179.562 155.27 179.608 150.949 179.123 147.142C178.314 140.78 177.559 132.009 171.715 127.87C167.063 138.567 173.878 151.769 176.155 162.29C177.293 167.553 178.966 173.944 174.981 178.241C173.38 179.967 174.248 177.62 172.499 180.162C172.107 180.733 171.979 181.743 171.773 182.399C170.303 187.105 169.469 191.951 168.125 196.683C167.293 199.619 165.447 209.526 161.659 210.364C154.79 211.881 154.2 187.478 153.596 182.869C153.141 179.383 153.241 175.572 152.635 172.177C152.079 169.062 150.119 166.968 150.453 163.417C150.884 158.819 152.774 154.293 153.719 149.791C154.989 143.735 154.961 138.054 154.217 131.95C153.909 129.423 153.53 123.504 150.573 122.99C145.823 122.168 146.872 131.719 146.826 134.223C146.694 141.638 148.642 149.801 146.654 157.894C144.6 166.267 149.417 174.033 148.674 182.421C148.404 185.45 147.725 186.844 145.794 189.066C143.648 191.54 142.55 192.665 141.453 196.412C140.459 199.808 136.664 216.785 130.668 211.784C128.722 210.162 129.68 206.512 129.736 204.409C129.857 199.773 129.719 195.121 129.953 190.489C130.102 187.548 130.975 184.214 130.235 181.298C129.532 178.531 127.999 177.101 128.352 173.927C128.827 169.652 132.072 164.719 131.764 160.548C131.472 156.571 129.974 152.68 130.074 148.383C130.155 144.964 133.375 127.221 130.735 126.201C125.372 124.124 125.021 146.039 124.96 147.707C124.573 158.336 125.734 169.669 124.967 180.362C124.708 183.956 122.92 185.808 121.784 188.589C120.274 192.282 120.507 197.209 119.276 201.138C118.294 204.269 115.724 212.457 111.769 208.229C108.91 205.175 109.82 196.834 109.353 192.846C108.828 188.339 107.98 183.93 107.972 179.38C107.969 178.4 108.369 176.482 108.088 175.599C107.305 173.157 104.218 172.646 103.405 169.783C104.09 172.689 103.933 175.064 102.47 177.596C102.09 178.258 100.639 179.108 100.049 179.872C98.268 182.178 97.3694 185.601 96.179 188.261C94.5029 191.994 83.5774 209.343 82.7695 196.609C82.4245 191.165 83.0036 185.615 83.789 180.243C84.4049 176.023 86.0132 170.967 85.3689 166.724C84.6996 162.325 83.7707 161.042 85.6799 156.348C87.6421 151.525 91.4689 145.344 90.3339 139.971C88.0188 129.026 78.4147 155.261 77.5631 158.151C75.8425 163.989 73.6019 170.076 69.3862 174.595C64.6865 179.634 59.1088 182.814 55.232 188.742C53.5047 191.387 48.5249 200.453 44.2577 197.724C40.0554 195.039 45.6514 184.915 46.6832 181.961C47.7495 178.91 49.3958 175.698 50.1472 172.604C50.8276 169.795 50.3677 167.073 50.8438 164.225C52.1903 156.151 58.7288 152.475 62.2983 145.739C64.1825 142.182 63.7977 139.729 59.1913 141.891C56.7034 143.055 54.7265 146.117 52.7209 148.037C49.7051 150.926 46.4537 153.604 43.3133 156.359C39.0736 160.077 15.6677 181.187 11.2235 169.855Z" fill="#89B99A"/>
</svg>

<svg width="292" height="213" fill="none" xmlns="http://www.w3.org/2000/svg"><path fill-rule="evenodd" clip-rule="evenodd" d="M103.264 161.374c-1.12 1.86-.396 4.871-.099 6.862-.27-4.885 3.092-10.384 4.902-14.734 1.76-4.233 3.229-8.6 4.275-13.073.024-.097 2.231-10.08-1.014-8.174-9.022 5.248-3.201 21.775-8.064 29.119ZM99.38 85.727c2.737 3.602 16.55 20.551 21.557 14.956 3.984-4.453-4.211-15.126-7.643-17.518-5.717-3.978-11.848-7.227-17.328-11.588.614 5.099.117 9.844 3.414 14.15ZM245.035 88.6c4.413-.658 8.839-1.343 13.192-2.323-5.053.746-10.049 1.353-15.006 2.62l1.814-.297ZM11.224 169.855c-.925-2.335 4.224-6.287 5.436-7.573 3.322-3.53 6.74-7.454 7.33-12.125 1.085-3.665-7.495-1.76-10.088-2.199-1.817-.308-6.275-1.343-7.205-3.218-1.994-4.018 4.407-6.189 7.2-7.502 4.091-1.923 6.296-2.416 1.945-4.234-4.677-1.953-14.64-1.712-15.758-8.564-.95-5.836 8.833-8.259 12.717-9.152 7.317-1.691 13.839-.63 20.709 2.142 1.602.646 11.306 4.073 10.658 1.672-2.068-5.249-9.093-6.206-11.83-11.002-1.555-2.727-1.628-5.26-3.604-7.946-1.95-2.652-5.961-6.535-4.118-10.302 1.172-2.39 3.95-2.786 6.056-2.052 5.12 1.407 8.562 4.653 13.078 7.214 3.304 1.872 7.035 1.17 9.927 3.957 4.367 4.317 8.752 9.175 13.578 13.198 1.513 1.261 8.589 6.684 9.038 2.522.253-2.344-6.992-6.362-8.171-7.227-2.817-2.069-5.832-3.789-7.36-7.125-.875-1.913-.434-3.967-1.13-5.454-2.057-4.398-8.002-7.691-10.642-11.877-2.37-3.757-7.88-13.257-6.283-17.8 2.185-6.222 8.517.341 11.623 2.664 3.437 2.573 6.425 5.17 10.204 6.96 3.335 1.583 5.767 3.324 8.124 6.355 4.356 5.599 7.258 11.874 10.758 17.768a.542.542 0 0 1-.045-.055c2.098 3.387 5.082 6.937 8.683 8.862 6.038 3.227 4.245-.584 1.295-4.743-4.446-6.27-9.867-11.848-14.331-18.085-1.59-2.222-3.101-4.653-3.332-7.466-.155-1.887 1.047-3.4 1.087-4.77.147-4.763-14.443-31.233-4.478-32.85 5.381-.874 8.69 11.132 10.459 14.296 2.827 5.054 4.227 9.472 9.492 12.237-.491-2.259 1.4-3.85 1.113-5.818-.343-2.341-2.794-4.387-4.13-6.177-3.673-4.92-7.058-10.159-9.38-15.837-7.086-17.325 11.36-4.227 17.203.522a400.53 400.53 0 0 0 3.85 3.074c3.379 2.665 4.481 2.162 8.039 3.552 6.052 2.366 9.487 13.19 11.454 18.895.609 1.76 10.971 29.49 14.956 22.367 2.01-3.593-4.52-15.502-6.631-18.977-3.247-5.345-11.702-12.69-11.046-19.422.206-2.115 1.828-3.005 2.126-4.901.699-4.429-3.474-10.177-4.567-14.323-2.222-8.438 2.356-14.492 8.415-4.954 2.397 3.775 4.173 5.994 7.272 9.273 3.535 3.74 3.455 8.888 6.139 12.863 2.22 3.285 1.916.032 5.509 2.33 2.983 1.91 3.52 8.613 3.9 11.842.526 4.485.177 23.094 6.555 23.17 5.814.068 4.074-11.928 3.368-15.277-1.766-8.38-7.206-14.516-11.847-21.382-2.263-3.347-5.07-7.306-6.173-11.248-.965-3.456.169-6.072.583-9.404.484-3.88 1.374-21.71 9.644-15.983 5.556 3.848 3.583 13.607 8.526 17.89.532-4.6-2.333-16.575 4.106-18.63 6.216-1.984 9.377 11.097 10.933 15.432.953 2.659 3.088 18.272 6.351 19.955 3.406 1.757 4.482-2.758 5.348-5.223 1.483-4.215 13.14-42.913 19.929-38.703 5.266 3.262-4.216 15.192-2.184 18.656.747 1.273 2.083.25 3.409.712 4.862 1.695 5.747 4.164 3.523 9.017 12.956 1.79-1.05 12.912-5.562 16.767-3.074 2.625-16.463 13.614-10.018 18.725 2.167 1.719 8.22-.044 10.927.644 5.22 1.33 6.018 6.217 1.971 9.63-2.784 2.35-6.989 3.494-10.536 3.962-2.036.27-7.754-.504-9.147 1.13 7.645 4.267 1.147 6.37-4.465 8.474-4.197 1.575-15.205 5.17-15.223 11.181 6.911-.636 13.591-3.136 20.421-4.255 7.48-1.222 14.73-2.81 22.314-4.834 14.381-3.842 29.582-7.228 44.26-9.413 7.18-1.07 14.323-2.6 21.425-4.097 2.561-.541 15.665-5.696 16.717-.559 1.422 6.95-18.721 5.667-22.425 7.843-26.542 5.068-52.799 11.667-79.398 16.065 2.37.572 7.635 4.585 5.743 7.567 2.073.258 5.857-.407 7.451 1.207 3.525 3.574-1.241 3.045-1.923 4.76-1.165 2.93 4.966 3.578 7.227 4.243 10.542 3.097 20.822 8.578 30.611 13.549 5.37 2.73 17.127 15.546 6.644 19.287-5.232 1.869-13.121-2.274-17.549-4.573-2.795-1.449-9.579-7.122-13.031-6.623-.196 4.084 4.989 12.182 6.456 15.744 3.103 7.53 4.479 13.328.62 20.952-9.166 18.115-16.471-14.684-19.039-13.362-1.807.932.763 16.222.992 18.18.509 4.338.677 16.737-5.961 17.335-5.568.501-7.869-10.544-9.128-14.162-1.056-3.034-3.157-6.075-3.962-9.567-.662-2.874-.202-5.928-.79-8.734-.612-2.918-3.04-4.499-3.773-7.782-.826-3.686-.78-8.007-1.265-11.814-.809-6.362-1.564-15.133-7.408-19.272-4.652 10.697 2.163 23.899 4.44 34.42 1.138 5.263 2.811 11.654-1.174 15.951-1.601 1.726-.733-.621-2.482 1.921-.392.571-.52 1.581-.726 2.237-1.47 4.706-2.304 9.552-3.648 14.284-.832 2.936-2.678 12.843-6.466 13.681-6.869 1.517-7.459-22.886-8.063-27.495-.455-3.486-.355-7.297-.961-10.692-.556-3.115-2.516-5.209-2.182-8.76.431-4.598 2.321-9.124 3.266-13.626 1.27-6.056 1.242-11.737.498-17.841-.308-2.527-.687-8.446-3.644-8.96-4.75-.822-3.701 8.729-3.747 11.233-.132 7.415 1.816 15.578-.172 23.671-2.054 8.373 2.763 16.139 2.02 24.527-.27 3.029-.949 4.423-2.88 6.645-2.146 2.474-3.244 3.599-4.341 7.346-.994 3.396-4.789 20.373-10.785 15.372-1.946-1.622-.988-5.272-.932-7.375.121-4.636-.017-9.288.217-13.92.149-2.941 1.022-6.275.282-9.191-.703-2.767-2.236-4.197-1.883-7.371.475-4.275 3.72-9.208 3.412-13.379-.292-3.977-1.79-7.868-1.69-12.165.081-3.419 3.301-21.162.661-22.182-5.363-2.077-5.714 19.838-5.775 21.506-.387 10.629.774 21.962.007 32.655-.259 3.594-2.047 5.446-3.183 8.227-1.51 3.693-1.277 8.62-2.508 12.549-.982 3.131-3.552 11.319-7.507 7.091-2.859-3.054-1.949-11.395-2.416-15.383-.525-4.507-1.373-8.916-1.381-13.466-.003-.98.397-2.898.116-3.781-.783-2.442-3.87-2.953-4.683-5.816.685 2.906.528 5.281-.935 7.813-.38.662-1.831 1.512-2.421 2.276-1.781 2.306-2.68 5.729-3.87 8.389-1.676 3.733-12.602 21.082-13.41 8.348-.345-5.444.235-10.994 1.02-16.366.616-4.22 2.224-9.276 1.58-13.519-.67-4.399-1.598-5.682.31-10.376 1.963-4.823 5.79-11.004 4.655-16.377-2.315-10.945-11.92 15.29-12.77 18.18-1.721 5.838-3.962 11.925-8.178 16.444-4.7 5.039-10.277 8.219-14.154 14.147-1.727 2.645-6.707 11.711-10.974 8.982-4.203-2.685 1.393-12.809 2.425-15.763 1.066-3.051 2.713-6.263 3.464-9.357.68-2.809.22-5.531.697-8.379 1.346-8.074 7.885-11.75 11.454-18.486 1.885-3.557 1.5-6.01-3.107-3.848-2.488 1.164-4.465 4.226-6.47 6.146-3.016 2.889-6.267 5.567-9.408 8.322-4.24 3.718-27.645 24.828-32.09 13.496Z" fill="#89B99A"/></svg>
